Numix/64/apps/goa-account-facebook.svg

<?xml version="1.0" encoding="UTF-8" standalone="yes"?>
<svg xmlns="http://www.w3.org/2000/svg" xmlns:xlink="http://www.w3.org/1999/xlink" width="64px" height="64px" viewBox="0 0 48 48" version="1.1">
  <g id="surface1">
    <path style=" stroke:none;fill-rule:nonzero;fill:rgb(23.137255%,34.117647%,61.568627%);fill-opacity:1;" d="M 15.75 18.105469 L 19.285156 18.105469 L 19.285156 15.75 C 19.285156 13.914062 19.546875 12.644531 19.980469 11.738281 C 20.425781 10.835938 21.230469 10.101562 22.390625 9.539062 C 23.570312 8.964844 25.058594 8.679688 26.851562 8.679688 C 28.6875 8.679688 30.617188 9.152344 32.25 9.855469 L 31.070312 13.394531 C 30.046875 13.171875 29.363281 13.109375 28.414062 13.109375 C 27.476562 13.109375 26.777344 13.203125 26.183594 13.691406 C 25.589844 14.175781 25.175781 14.640625 25.179688 15.75 L 25.179688 18.105469 L 31.070312 18.105469 L 31.070312 21.644531 L 25.179688 21.644531 L 25.179688 39.320312 L 19.285156 39.320312 L 19.285156 21.644531 L 15.75 21.644531 "/>
  </g>
</svg>

<svg xmlns="http://www.w3.org/2000/svg" width="64" height="64" viewBox="0 0 48 48">
 <g>
  <path d="m 15.75 18.11 l 3.535 0 l 0 -2.355 c 0 -1.836 0.262 -3.105 0.695 -4.01 c 0.445 -0.902 1.25 -1.637 2.41 -2.199 c 1.18 -0.574 2.668 -0.859 4.461 -0.859 c 1.836 0 3.766 0.473 5.398 1.176 l -1.18 3.539 c -1.023 -0.223 -1.707 -0.285 -2.656 -0.285 c -0.938 0 -1.637 0.094 -2.23 0.582 c -0.594 0.484 -1.01 0.949 -1 2.059 l 0 2.355 l 5.891 0 l 0 3.539 l -5.891 0 l 0 17.676 l -5.895 0 l 0 -17.676 l -3.535 0" style="fill:#3b569c;fill-opacity:1;stroke:none;fill-rule:nonzero"/>
 </g>
</svg>
